src/assets/icons/app-assets.svg

<svg width="16" height="16" viewBox="0 0 16 16" fill="none" xmlns="http://www.w3.org/2000/svg">
<g clip-path="url(#clip0_8874_15384)">
<path fill-rule="evenodd" clip-rule="evenodd" d="M5.87964 0.00976322C4.72431 0.0277861 3.81239 0.139702 2.97016 0.366869C1.46988 0.771495 0.418364 1.51322 0.116216 2.37999C-0.000249087 2.71407 0.00850587 2.42367 0.00185417 6.17054C-0.00207872 8.38546 0.00190545 9.64203 0.0133279 9.78709C0.0428417 10.1618 0.141574 10.438 0.360003 10.757C0.64972 11.18 1.10741 11.5468 1.74156 11.8642C2.18536 12.0864 2.37863 12.1356 2.592 12.081C2.90326 12.0011 3.11213 11.7762 3.16578 11.4631C3.22019 11.1455 3.04213 10.8194 2.73463 10.6736C2.12866 10.3862 1.94586 10.2746 1.73159 10.0614C1.50186 9.83285 1.51162 9.87544 1.5057 9.07541L1.50071 8.39792L1.66815 8.48429C2.05439 8.68354 2.25547 8.75558 2.42523 8.75558C2.76664 8.75558 3.05548 8.53652 3.1464 8.20862C3.20201 8.00811 3.17527 7.81143 3.06737 7.62734C2.98023 7.47865 2.8625 7.38358 2.6491 7.28955C2.40683 7.18278 2.17549 7.05955 2.01842 6.95355C1.84545 6.83684 1.62241 6.62009 1.56075 6.50879L1.51071 6.41849L1.50553 5.73705C1.50268 5.36227 1.50652 5.05872 1.51408 5.06251C2.03625 5.32429 2.20283 5.39352 2.35054 5.4102C2.82734 5.46397 3.24606 5.02305 3.16538 4.55211C3.11887 4.28053 2.96997 4.09639 2.69328 3.96826C2.18317 3.73203 1.94383 3.58417 1.7326 3.37477C1.43519 3.07996 1.43903 2.89705 1.74884 2.60018C2.33176 2.04161 3.60121 1.6422 5.13128 1.53596C5.51429 1.50937 6.52822 1.50812 6.76881 1.53394C7.69191 1.63302 8.45116 1.85189 9.21223 2.23832C9.34018 2.3033 9.54021 2.41012 9.65671 2.4757C9.93796 2.63401 10.0785 2.66224 10.2993 2.60473C10.489 2.55532 10.64 2.44566 10.7528 2.27533C10.9379 1.99589 10.8857 1.57765 10.6366 1.34467C10.4302 1.1516 9.66215 0.75549 9.06014 0.53164C8.03865 0.151792 7.06089 -0.00865294 5.87964 0.00976322ZM9.56458 3.36722C7.62479 3.47775 5.96765 4.04504 5.12587 4.88671C4.91256 5.09999 4.76996 5.29483 4.65622 5.52842C4.55143 5.74364 4.50301 5.90653 4.47803 6.12779C4.45291 6.35036 4.45414 13.0184 4.47934 13.2241C4.52361 13.5853 4.64061 13.8604 4.892 14.1942C5.61721 15.1572 7.31795 15.8204 9.44042 15.968C9.78588 15.992 10.6565 15.9922 11.0047 15.9683C13.6851 15.7844 15.596 14.8073 15.9418 13.4436C16.0007 13.2114 16.0044 12.948 15.9982 9.50495C15.9915 5.78021 15.9992 6.04944 15.8905 5.73262C15.5969 4.87667 14.6199 4.16041 13.1731 3.74058C12.571 3.56586 11.8525 3.44068 11.1206 3.38295C10.805 3.35805 9.88812 3.34878 9.56458 3.36722ZM9.46198 4.87967C8.20242 4.97881 7.13777 5.27805 6.46213 5.72283C6.18088 5.90798 5.96514 6.17121 5.96514 6.32919C5.96514 6.54971 6.31662 6.88583 6.79894 7.12654C7.75867 7.60555 9.19667 7.85544 10.6417 7.79435C11.6917 7.74996 12.542 7.58614 13.3179 7.27876C13.7361 7.1131 14.0642 6.91567 14.2762 6.70203C14.5602 6.41597 14.5576 6.234 14.2653 5.94553C13.7767 5.46322 12.7315 5.08298 11.4541 4.92288C10.9136 4.85513 10.0199 4.83576 9.46198 4.87967ZM5.96514 9.06142V9.72936L6.01024 9.82471C6.10554 10.0261 6.41099 10.2759 6.79868 10.4694C7.67756 10.908 8.88359 11.1458 10.2315 11.1463C11.5681 11.1468 12.7997 10.9027 13.6736 10.4642C14.0222 10.2893 14.3307 10.039 14.4392 9.84316L14.4892 9.75289L14.4942 9.07318C14.497 8.69935 14.4949 8.39348 14.4897 8.39348C14.4844 8.39348 14.3947 8.43633 14.2902 8.48869C13.2424 9.01421 11.8144 9.29948 10.2315 9.29948C8.92041 9.2995 7.75456 9.11261 6.75414 8.74209C6.51969 8.65525 6.16995 8.50144 6.05614 8.43511C6.01684 8.41222 5.98029 8.39348 5.97492 8.39348C5.96953 8.39348 5.96514 8.69405 5.96514 9.06142ZM5.96529 12.4033L5.96548 13.0702L6.00816 13.1619C6.06453 13.283 6.25832 13.481 6.44286 13.6061C7.66585 14.4352 10.197 14.7289 12.2749 14.2828C12.9471 14.1385 13.5739 13.8978 13.9934 13.6231C14.1657 13.5102 14.3921 13.2856 14.4474 13.1728L14.4892 13.0873L14.4942 12.4079L14.4993 11.7284L14.2976 11.8293C12.7783 12.5897 10.4182 12.8485 8.29067 12.488C7.50479 12.3549 6.79072 12.1362 6.18707 11.8439L5.96512 11.7364L5.96529 12.4033Z" fill="currentColor"/>
</g>
<defs>
<clipPath id="clip0_8874_15384">
<rect width="16" height="16" fill="white"/>
</clipPath>
</defs>
</svg>

<svg xmlns="http://www.w3.org/2000/svg" width="16" height="16" fill="none">
  <g clip-path="url(#a)">
    <path fill="currentColor" fill-rule="evenodd" d="M5.88.01C4.724.028 3.812.14 2.97.367 1.47.77.418 1.513.116 2.38 0 2.714.01 2.424.002 6.17c-.004 2.215 0 3.472.011 3.617.03.375.129.651.347.97.29.423.747.79 1.382 1.107.443.222.637.272.85.217a.747.747 0 0 0 .574-.618.75.75 0 0 0-.431-.79c-.606-.287-.79-.398-1.003-.612-.23-.228-.22-.186-.226-.986L1.5 8.398l.167.086c.386.2.587.272.757.272a.74.74 0 0 0 .721-.547.73.73 0 0 0-.079-.582c-.087-.148-.205-.243-.418-.337a4.303 4.303 0 0 1-.63-.336c-.174-.117-.397-.334-.458-.445l-.05-.09-.005-.682a8.214 8.214 0 0 1 .008-.674c.522.261.689.33.837.347.476.054.895-.387.814-.858-.046-.271-.195-.456-.472-.584-.51-.236-.75-.384-.96-.593-.298-.295-.294-.478.016-.775.583-.558 1.852-.958 3.382-1.064.383-.027 1.397-.028 1.638-.002.923.099 1.682.318 2.443.704.128.065.328.172.445.238.281.158.421.186.642.129.19-.05.341-.16.454-.33a.753.753 0 0 0-.116-.93c-.207-.193-.975-.59-1.577-.813-1.021-.38-2-.54-3.18-.522Zm3.685 3.357c-1.94.11-3.597.678-4.44 1.52a2.296 2.296 0 0 0-.469.641 1.68 1.68 0 0 0-.178.6c-.025.222-.024 6.89.001 7.096.045.361.162.636.413.97.725.963 2.426 1.626 4.548 1.774.346.024 1.216.024 1.565 0 2.68-.184 4.591-1.16 4.937-2.524.059-.233.062-.496.056-3.94-.006-3.724.001-3.455-.107-3.771-.294-.856-1.271-1.573-2.718-1.992a10.53 10.53 0 0 0-2.052-.358 18.598 18.598 0 0 0-1.556-.016ZM9.462 4.88c-1.26.099-2.324.398-3 .843-.281.185-.497.448-.497.606 0 .22.352.557.834.798.96.479 2.398.728 3.843.667 1.05-.044 1.9-.208 2.676-.515.418-.166.746-.363.958-.577.284-.286.282-.468-.01-.756-.49-.483-1.534-.863-2.812-1.023a11.836 11.836 0 0 0-1.992-.043ZM5.965 9.06v.668l.045.096c.096.201.401.45.789.644.879.439 2.085.677 3.433.677 1.336 0 2.568-.243 3.442-.682.348-.175.657-.425.765-.62l.05-.091.005-.68c.003-.374 0-.68-.004-.68-.006 0-.095.043-.2.096-1.048.525-2.476.81-4.058.81-1.312 0-2.477-.186-3.478-.557a6.422 6.422 0 0 1-.78-.349c-.004 0-.009.301-.009.668Zm0 3.342v.667l.043.092c.057.121.25.319.435.444 1.223.83 3.754 1.123 5.832.677.672-.144 1.299-.385 1.718-.66.173-.113.4-.337.454-.45l.042-.086.005-.68.005-.679-.201.101c-1.52.76-3.88 1.02-6.007.659a7.885 7.885 0 0 1-2.104-.644l-.222-.108v.667Z" clip-rule="evenodd"/>
  </g>
  <defs>
    <clipPath id="a">
      <path fill="#fff" d="M0 0h16v16H0z"/>
    </clipPath>
  </defs>
</svg>
